X: 36583
T: Shady Road To Clamper, The
R: polka
M: 2/4
K: Amajor
A>B ce|ae fe|A>B ce|fc ec|
A>B ce|ae fe|f/g/a/f/ ec|1 BA AE/F/:|2 BA AB||
|:c>c cB|ce fe|c>c ce|c/B/A B2|
c>c cB|ce fe|fa/f/ ec|1 BA AB:|BA AE/F/||

